X: 20061
T: Jimmy Lyons
R: strathspey
M: 4/4
K: Gmajor
A>ag>a e<Ac>A|F>Ad>c B>EG>B|A>ag>a e<Ac>A|
1 F>AG>B c<AA>G:|2 F>AG>B c<A (3agf||
|:e<cc>e f<dd>f|e>cc>e f<ee>a|e<cc>e f>df>a|
1 (3gfe (3dcB (3Ace (3agf:|2 (3gbg (3efg a>Ac>B||
G>gf>g d<GB>G|E>Gc>B A>DF>A|G>gf>g d<GB>G|
1 E>GF>A B<GG>F:|2 E>GF>A B<G (3gfe||
|:d<BB>d e<cc>e|d>BB>d e<dd>g|d<BB>d e>ce>g|
1 (3fed (3cBA (3GBd (3gfe:|2 (3faf (3def g>GB>A||
G>g f>g BG|E>G c>B (3ABA|G>g f>g dG|E>G F>A (3ABG|
G>g f>g dG|E>G c>B A>F|G>g f>g dG|E>G F>A B<G||
[1 (3fed (3cBA (3GBc:|2 (3faf (3def (3gBA||

